static/images/bitexlive-logo.svg

<svg height="100" viewBox="0 0 100 100" width="100" xmlns="http://www.w3.org/2000/svg" xmlns:xlink="http://www.w3.org/1999/xlink"><radialGradient id="a" cx="50%" cy="50%" r="100%"><stop offset="0" stop-color="#1a1546"/><stop offset="1" stop-color="#0d0a2a"/></radialGradient><linearGradient id="b" x1="50%" x2="50%" y1="0%" y2="100%"><stop offset="0" stop-color="#00ffb9"/><stop offset="1" stop-color="#004734"/></linearGradient><g fill="none"><circle cx="50" cy="50" fill="url(#a)" r="50"/><path d="m50 0c27.614 0 50 22.386 50 50s-22.386 50-50 50-50-22.386-50-50 22.386-50 50-50zm0 3.572c-25.64 0-46.428 20.786-46.428 46.428 0 25.64 20.786 46.428 46.428 46.428 25.64 0 46.428-20.786 46.428-46.428 0-25.64-20.786-46.428-46.428-46.428z" fill="url(#b)"/><g transform="translate(24 32)"><path d="m52.64 35.156v-6.492h-14.652v-28.522h-8.416v35.014z" fill="#00ffb9"/><path d="m14.28 35.156c4.252-.032 7.46-.91 9.626-2.632 2.166-1.724 3.25-4.3 3.25-7.732 0-1.892-.488-3.496-1.464-4.81-.974-1.314-2.374-2.212-4.196-2.694 1.614-.608 2.838-1.554 3.67-2.838.83-1.28 1.246-2.828 1.246-4.64 0-3.142-1.17-5.54-3.512-7.192-2.342-1.65-5.76-2.476-10.252-2.476h-12.54v35.014zm-1.368-20.414h-4.388v-8.08h4.124c1.886 0 3.254.324 4.1.974.848.648 1.272 1.71 1.272 3.186 0 1.282-.392 2.252-1.176 2.91-.782.656-2.094.994-3.932 1.01zm1.128 13.924h-5.516v-8.394h5.9c2.892.016 4.34 1.484 4.34 4.4 0 1.268-.408 2.25-1.224 2.948-.816.696-1.982 1.046-3.5 1.046z" fill="#fff" transform="matrix(-1 0 0 1 27.264 0)"/></g></g></svg>

<?xml version="1.0" encoding="UTF-8"?>
<svg width="100px" height="100px" viewBox="0 0 100 100" version="1.1" xmlns="http://www.w3.org/2000/svg" xmlns:xlink="http://www.w3.org/1999/xlink">
    <!-- Generator: Sketch 63.1 (92452) - https://sketch.com -->
    <title>bitexlive-logo</title>
    <desc>Created with Sketch.</desc>
    <defs>
        <radialGradient cx="50%" cy="50%" fx="50%" fy="50%" r="100%" id="radialGradient-1">
            <stop stop-color="#1A1546" offset="0%"></stop>
            <stop stop-color="#0D0A2A" offset="100%"></stop>
        </radialGradient>
        <linearGradient x1="50%" y1="0%" x2="50%" y2="100%" id="linearGradient-2">
            <stop stop-color="#00FFB9" offset="0%"></stop>
            <stop stop-color="#004734" offset="100%"></stop>
        </linearGradient>
    </defs>
    <g id="Page-1" stroke="none" stroke-width="1" fill="none" fill-rule="evenodd">
        <g id="bitexlive-logo" fill-rule="nonzero">
            <circle id="Oval" fill="url(#radialGradient-1)" cx="50" cy="50" r="50"></circle>
            <path d="M50,0 C77.614,0 100,22.386 100,50 C100,77.614 77.614,100 50,100 C22.386,100 0,77.614 0,50 C0,22.386 22.386,0 50,0 Z M50,3.572 C24.36,3.572 3.572,24.358 3.572,50 C3.572,75.64 24.358,96.428 50,96.428 C75.64,96.428 96.428,75.642 96.428,50 C96.428,24.36 75.642,3.572 50,3.572 Z" id="Shape" fill="url(#linearGradient-2)"></path>
            <g id="Group" transform="translate(24.000000, 32.000000)">
                <polygon id="Path" fill="#00FFB9" points="52.64 35.156 52.64 28.664 37.988 28.664 37.988 0.142 29.572 0.142 29.572 35.156"></polygon>
                <path d="M14.28,35.156 C18.532,35.124 21.74,34.246 23.906,32.524 C26.072,30.8 27.156,28.224 27.156,24.792 C27.156,22.9 26.668,21.296 25.692,19.982 C24.718,18.668 23.318,17.77 21.496,17.288 C23.11,16.68 24.334,15.734 25.166,14.45 C25.996,13.17 26.412,11.622 26.412,9.81 C26.412,6.668 25.242,4.27 22.9,2.618 C20.558,0.968 17.14,0.142 12.648,0.142 L0.108,0.142 L0.108,35.156 L14.28,35.156 Z M12.912,14.742 L8.524,14.742 L8.524,6.662 L12.648,6.662 C14.534,6.662 15.902,6.986 16.748,7.636 C17.596,8.284 18.02,9.346 18.02,10.822 C18.02,12.104 17.628,13.074 16.844,13.732 C16.062,14.388 14.75,14.726 12.912,14.742 Z M14.04,28.666 L8.524,28.666 L8.524,20.272 L14.424,20.272 C17.316,20.288 18.764,21.756 18.764,24.672 C18.764,25.94 18.356,26.922 17.54,27.62 C16.724,28.316 15.558,28.666 14.04,28.666 L14.04,28.666 Z" id="Shape" fill="#FFFFFF" transform="translate(13.632000, 17.649000) scale(-1, 1) translate(-13.632000, -17.649000) "></path>
            </g>
        </g>
    </g>
</svg>
